T: Famous Last Words
M: 9/8
L: 1/8
K: Emin
||: EFGA BAG FG~F2 GF | EFGA BAG FG~F2 GA |BdeB AGA Bc~B2 AG |1 BdeB AGA Bc~B2 AG :|2 BdeB ABd eg~e2 dB ||
